**kern	**kern	**dynam
*part1	*part1	*part1
*staff2	*staff1	*
*I"Piano	*	*
*clefF4	*clefG2	*
*k[b-e-a-]	*k[b-e-a-]	*
=1	=1	=1
*^	*	*
4F	8FL	8r	p
!	!	!	!LO:DY:a
.	8B-	8dL 8a- [8b-	pp
8G	8GJ	8e-J 8g 8b-]	.
=	=	=	=
8A-	8A-L	8r	.
4B-	8B-	4d 4a- 4b-	.
.	8BB-J	.	.
*v	*v	*	*
=	=	=
*	*^	*
8cL	(4e- 4a- 4b-	(4c<	.
8BB-	.	.	.
8dJ	8f) 8a- 8b-	8d<)	.
=	=	=	=
*^	*	*	*
(8EE-L	4.EE-	8e-	4e-	.
8BB-	.	4g 4b-	.	.
[8B-J)	.	.	8ryy	.
*v	*v	*	*	*
=	=	=	=
8B-L]	8rg	(4.c^	p
(8B-	[4e- [4g	.	.
8BB-J)	.	.	.
=	=	=	=
*^	*	*	*
8EE-L	4.EE-	8e-] 8g]	4.B-^)	.
8BB-	.	4e- 4g	.	.
[8B-J	.	.	.	.
*v	*v	*	*	*
*	*clefF4	*	*
=	=	=	=
8B-]	8r	(4.C	pp
(8BB-L	[4E- [4G	.	.
8BBB-J)	.	.	.
=	=	=	=
4.EEE- 4.EE-	4.E-;] 4.G]	4.BB-)	.
*	*v	*v	*
==	==	==
*-	*-	*-
!!!system-decoration: {(s1,s2)}
!!!RDF**kern: < = below
